X:1
T:Be Not Deceived
T:Be Not Deceived
T:Daniel Brink Towner
T:Harriet Fithian, 1905
T:Public Domain Courtesy of the Cyber Hymnal™
T:Public Domain Courtesy of the Cyber Hymnal™
C:Daniel Brink Towner
Z:Public Domain
Z:Courtesy of the Cyber Hymnal™
%%score ( 1 2 ) ( 3 4 )
L:1/8
Q:1/4=93
M:3/4
K:A
V:1 treble 
V:2 treble 
V:3 bass 
V:4 bass 
V:1
 [CA][EA] [EA] | [EA]3 [EB] [EA][DF] | [CE]3 [EA] [DG][CA] | [EB]4 [Ec]2 | [EB]3 [^Ec] [Ec][EB] | %5
w: 1.~Be not de-|ceived; each soul shall|reap Its har- vest|soon or|late; Sow now thy|
w: 2.~Sow e- vil|deeds with care- less|hand And one sad|day be-|hold Thy gar- ner|
w: 3.~Sow seeds of|faith and hope and|love, Per- chance with|fall- ing|tears, A har- vest|
w: 4.~God’s law will|stand for- ev- er-|more, The law His|love made|known— From out the|
 [FA]3 [FB] [FA][DF] | [CE]3 [EA] [EG][EA] | [FB]4 [EG]2 | !fermata![EA]3 ||[M:4/4]"^Refrain" EFG | %10
w: seed, the field is|wide; The world is|thine es-|tate.||
w: filled with blight- ed|hopes, And woes a|hun- dred|fold.|Be not de-|
w: home of peace and|joy Will crown the|work of|years.||
w: har- vest field of|life We reap as|we have|sown.||
 (z [EA])AB [=Gc] x3 | [Fd]6 z2 | [Ec]4 [EB]2 [FA]2 | [Ge]6 [Ed]2 | %14
w: ||||
w: * ceived, be not|de-|ceived, God is|not mocked;|
w: ||||
w: ||||
 [Ec]3 [Ec] (3[Ec][Ec][Ec] [Ec]2 x | [Ec]2 [EB]4 z2 | [GB]3 [GB] (3[GB][GB][GB] [FB]2 | %17
w: |||
w: For what- so- ev- er a|man sow-|eth, What- so- ev- er a|
w: |||
w: |||
 [EB]2 [EA]3 E[EA][Gd] | [Ac]4 [GB]4 | [Ae]4- [Ae][Ed][Ec][FB] | [EA]4 [EG]4 | [EA]4- [EA] |] %22
w: |||||
w: man sow- eth, That shall|he al-|so * reap, That shall|he al-|so *|
w: |||||
w: |||||
V:2
 x3 | x6 | x6 | x6 | x6 | x6 | x6 | x6 | x3 ||[M:4/4] x3 | (A4- E E E A) | x8 | x8 | x8 | x9 | x8 | %16
 x8 | x5 E x2 | x8 | x8 | x8 | x5 |] %22
V:3
 [A,,E,][C,A,] [E,C] | [A,C]3 [A,D] [A,C]A, | A,3 [C,A,] [B,,E,][A,,A,] | [E,G,]4 A,2 | %4
w: ~ ~ ~|~ ~ ~ ~|~ ~ ~ ~|~ ~|
 [E,G,]3 [C,G,] [C,A,][C,B,] | [F,C]3 [D,D] [D,D][D,A,] | [A,,A,]3 [A,,C] [B,,B,][C,A,] | %7
w: ~ ~ ~ ~|~ ~ ~ ~|~ ~ ~ ~|
 [D,D]4 [E,D]2 | !fermata![A,,C]3 ||[M:4/4] E^D=D | z [A,C] z3 x3 | %11
w: ~ ~|~|~ ~ ~|Be|
 z [D,A,][D,A,][D,A,] [D,A,]2 z2 | A,4 [G,B,]2 (C^D) | [E,E]6 [G,B,]2 | A,3 A, A,A,A, A,2 | %15
w: be not de- ceived;||||
 [E,A,]2 [E,G,]4 z2 | [E,D]3 [E,D] (3[E,D][E,D][E,D] [E,D]2 | [A,,D]2 [A,,C]3 [A,,C][C,E][E,E] | %18
w: |||
 [A,E]4 E4 | [C,A,]4- [C,A,][B,,G,] [C,A,] (A,/B,/) | [E,C]4 [E,D]4 | [A,,C]4- [A,,C] |] %22
w: ||||
V:4
 x3 | x5 A, | A,3 x3 | x4 A,2 | x6 | x6 | x6 | x6 | x3 ||[M:4/4] x3 | C4- A,A,A, x | x8 | %12
w: ||||||||||* not de- ceived,||
 A,4 F,2 x2 | x8 | A,3 A, (3A,A,A, A,2 x | x8 | x8 | x8 | x4 (E,2 D,2) | x7 D, | x8 | x5 |] %22
w: ||||||||||

